apps/scalable/imagination.svg

<svg xmlns="http://www.w3.org/2000/svg" style="isolation:isolate" width="256" height="256"><defs><filter id="a" width="270.648" height="254.338" x="-7.32" y="2.95" filterUnits="userSpaceOnUse"><feGaussianBlur xmlns="http://www.w3.org/2000/svg" in="SourceGraphic" stdDeviation="4.294"/><feOffset xmlns="http://www.w3.org/2000/svg" dy="4" result="pf_100_offsetBlur"/><feFlood xmlns="http://www.w3.org/2000/svg" flood-opacity=".4"/><feComposite xmlns="http://www.w3.org/2000/svg" in2="pf_100_offsetBlur" operator="in" result="pf_100_dropShadow"/><feBlend xmlns="http://www.w3.org/2000/svg" in="SourceGraphic" in2="pf_100_dropShadow"/></filter></defs><g filter="url(#a)"><linearGradient id="b" x1="-.033" x2="1.033" y1="-.071" y2=".995" gradientTransform="matrix(244.648 0 0 228.338 5.676 11.947)" gradientUnits="userSpaceOnUse"><stop offset="0%" stop-color="#5884f4"/><stop offset="100%" stop-color="#80a3fa"/></linearGradient><path fill="url(#b)" d="M165.685 11.947c74.055 0 84.639 10.557 84.639 84.544v59.251c0 73.986-10.584 84.543-84.639 84.543h-75.37c-74.055 0-84.639-10.557-84.639-84.543V96.491c0-73.987 10.584-84.544 84.639-84.544h75.37z"/></g><path fill="#FFF" d="M128 11.947v228.338h37.685c74.055 0 84.639-10.557 84.639-84.543V96.491c0-73.987-10.584-84.544-84.639-84.544H128z" opacity=".2"/><linearGradient id="c" x1="-.223" x2="1.426" y1="1.683" y2="1.002" gradientTransform="matrix(244.648 0 0 86.828 5.676 84.586)" gradientUnits="userSpaceOnUse"><stop offset="0%" stop-color="#2f3943"/><stop offset="100%" stop-color="#808c9b"/></linearGradient><path fill="url(#c)" d="M5.852 84.586c-.032 2.554-.176 4.601-.176 7.324v59.252c0 7.46.215 13.84.484 20.065l243.676.187c.275-6.271.488-12.722.488-20.252V91.91c0-2.654-.142-4.645-.172-7.139l-244.3-.185z"/><path fill="#37A6E6" d="M172.206 106.885l-.032 41.724 62.587.048.046-41.739-62.601-.033z"/><path fill="#AEE3F8" d="M98.442 106.829l-.032 41.724 62.585.046.047-41.736-62.6-.034z"/><path fill="#A2BCFE" d="M24.677 106.774l-.034 41.723 62.587.048.046-41.74-62.599-.031z"/><path fill="#37A6E6" d="M250.324 148.67v-41.725l-4.351-.004-.032 41.725 4.383.004z"/><path fill="#A2BCFE" d="M5.676 106.76v41.72l7.789.006.031-41.72-7.82-.006z"/><path fill="#DA1636" d="M70.711 110.154a6.724 6.724 0 1 0 .002 13.448 6.724 6.724 0 0 0-.002-13.448zM46.058 121.36l-13.447 24.654H68.47l-11.206-20.171-4.482 6.723-6.724-11.206z"/><path fill="#46A926" d="M143.645 110.154a6.724 6.724 0 1 0 0 13.448 6.724 6.724 0 0 0 0-13.448zm-24.654 11.206l-13.447 24.654h35.86l-11.207-20.171-4.482 6.723-6.724-11.206z"/><path fill="#FDC92B" d="M218.723 110.154a6.724 6.724 0 1 0 .002 13.448 6.724 6.724 0 0 0-.002-13.448zM194.07 121.36l-13.447 24.654h35.859l-11.206-20.171-4.482 6.723-6.724-11.206z"/><g opacity=".4"><linearGradient id="d" x1=".517" x2=".517" y2="1"><stop offset="0%" stop-color="#fff"/><stop offset="12.5%" stop-opacity=".098" stop-color="#fff"/><stop offset="92.5%" stop-opacity=".098"/><stop offset="100%" stop-opacity=".498"/></linearGradient><path fill="none" stroke="url(#d)" stroke-linecap="round" stroke-linejoin="round" stroke-width="4.077" d="M165.685 11.947c74.055 0 84.639 10.557 84.639 84.544v59.251c0 73.986-10.584 84.543-84.639 84.543h-75.37c-74.055 0-84.639-10.557-84.639-84.543V96.491c0-73.987 10.584-84.544 84.639-84.544h75.37z" vector-effect="non-scaling-stroke"/></g></svg>

<svg xmlns="http://www.w3.org/2000/svg" style="isolation:isolate" width="256" height="256" viewBox="0 0 256 256">
 <defs>
  <filter id="ZFEXStkOm3Hv03gxUOyAh6l7ys1bi0yG" width="270.648" height="254.338" x="-7.32" y="2.95" filterUnits="userSpaceOnUse">
   <feGaussianBlur xmlns="http://www.w3.org/2000/svg" in="SourceGraphic" stdDeviation="4.294"/>
   <feOffset xmlns="http://www.w3.org/2000/svg" dx="0" dy="4" result="pf_100_offsetBlur"/>
   <feFlood xmlns="http://www.w3.org/2000/svg" flood-opacity=".4"/>
   <feComposite xmlns="http://www.w3.org/2000/svg" in2="pf_100_offsetBlur" operator="in" result="pf_100_dropShadow"/>
   <feBlend xmlns="http://www.w3.org/2000/svg" in="SourceGraphic" in2="pf_100_dropShadow" mode="normal"/>
  </filter>
 </defs>
 <g filter="url(#ZFEXStkOm3Hv03gxUOyAh6l7ys1bi0yG)">
  <linearGradient id="_lgradient_277" x1="-.033" x2="1.033" y1="-.071" y2=".995" gradientTransform="matrix(244.648,0,0,228.338,5.676,11.947)" gradientUnits="userSpaceOnUse">
   <stop offset="0%" style="stop-color:rgb(88,132,244)"/>
   <stop offset="100%" style="stop-color:rgb(128,163,250)"/>
  </linearGradient>
  <path fill="url(#_lgradient_277)" d="M 165.685 11.947 C 239.74 11.947 250.324 22.504 250.324 96.491 L 250.324 155.742 C 250.324 229.728 239.74 240.285 165.685 240.285 L 90.315 240.285 C 16.26 240.285 5.676 229.728 5.676 155.742 L 5.676 96.491 C 5.676 22.504 16.26 11.947 90.315 11.947 L 165.685 11.947 Z"/>
 </g>
 <g opacity=".2">
  <path fill="#FFFFFF" d="M 128 11.947 L 128 240.285 L 165.685 240.285 C 239.74 240.285 250.324 229.728 250.324 155.742 L 250.324 96.491 C 250.324 22.504 239.74 11.947 165.685 11.947 L 128 11.947 Z"/>
 </g>
 <g>
  <linearGradient id="_lgradient_278" x1="-.223" x2="1.426" y1="1.683" y2="1.002" gradientTransform="matrix(244.648,0,0,86.828,5.676,84.586)" gradientUnits="userSpaceOnUse">
   <stop offset="0%" style="stop-color:rgb(47,57,67)"/>
   <stop offset="100%" style="stop-color:rgb(128,140,155)"/>
  </linearGradient>
  <path fill="url(#_lgradient_278)" d="M 5.852 84.586 C 5.82 87.14 5.676 89.187 5.676 91.91 L 5.676 151.162 C 5.676 158.622 5.891 165.002 6.16 171.227 L 249.836 171.414 C 250.111 165.143 250.324 158.692 250.324 151.162 L 250.324 91.91 C 250.324 89.256 250.182 87.265 250.152 84.771 L 5.852 84.586 Z"/>
  <path fill="#37A6E6" d="M 172.206 106.885 L 172.174 148.609 L 234.761 148.657 L 234.807 106.918 L 172.206 106.885 Z"/>
  <path fill="#AEE3F8" d="M 98.442 106.829 L 98.41 148.553 L 160.995 148.599 L 161.042 106.863 L 98.442 106.829 Z"/>
  <path fill="#A2BCFE" d="M 24.677 106.774 L 24.643 148.497 L 87.23 148.545 L 87.276 106.805 L 24.677 106.774 Z"/>
  <path fill="#37A6E6" d="M 250.324 148.67 L 250.324 106.945 L 245.973 106.941 L 245.941 148.666 L 250.324 148.67 Z"/>
  <path fill="#A2BCFE" d="M 5.676 106.76 L 5.676 148.48 L 13.465 148.486 L 13.496 106.766 L 5.676 106.76 Z"/>
  <path fill="#DA1636" d="M 70.711 110.154 C 66.998 110.154 63.988 113.165 63.988 116.878 C 63.988 120.591 66.998 123.602 70.711 123.602 C 74.425 123.602 77.435 120.591 77.435 116.878 C 77.435 113.165 74.425 110.154 70.711 110.154 Z M 46.058 121.36 L 32.611 146.014 L 44.795 146.014 L 68.47 146.014 L 57.264 125.843 L 52.782 132.566 L 46.058 121.36 Z"/>
  <path fill="#46A926" d="M 143.645 110.154 C 139.931 110.154 136.921 113.165 136.921 116.878 C 136.921 120.591 139.931 123.602 143.645 123.602 C 147.358 123.602 150.368 120.591 150.368 116.878 C 150.368 113.165 147.358 110.154 143.645 110.154 Z M 118.991 121.36 L 105.544 146.014 L 117.729 146.014 L 141.404 146.014 L 130.197 125.843 L 125.715 132.566 L 118.991 121.36 Z"/>
  <path fill="#FDC92B" d="M 218.723 110.154 C 215.01 110.154 212 113.165 212 116.878 C 212 120.591 215.01 123.602 218.723 123.602 C 222.437 123.602 225.447 120.591 225.447 116.878 C 225.447 113.165 222.437 110.154 218.723 110.154 Z M 194.07 121.36 L 180.623 146.014 L 192.807 146.014 L 216.482 146.014 L 205.276 125.843 L 200.794 132.566 L 194.07 121.36 Z"/>
 </g>
 <g opacity=".4">
  <linearGradient id="_lgradient_279" x1=".517" x2=".517" y1="0" y2="1">
   <stop offset="0%" style="stop-color:rgb(255,255,255)"/>
   <stop offset="12.5%" stop-opacity=".098" style="stop-color:rgb(255,255,255)"/>
   <stop offset="92.5%" stop-opacity=".098" style="stop-color:rgb(0,0,0)"/>
   <stop offset="100%" stop-opacity=".498" style="stop-color:rgb(0,0,0)"/>
  </linearGradient>
  <path fill="none" stroke="url(#_lgradient_279)" stroke-linecap="round" stroke-linejoin="round" stroke-width="4.077" d="M 165.685 11.947 C 239.74 11.947 250.324 22.504 250.324 96.491 L 250.324 155.742 C 250.324 229.728 239.74 240.285 165.685 240.285 L 90.315 240.285 C 16.26 240.285 5.676 229.728 5.676 155.742 L 5.676 96.491 C 5.676 22.504 16.26 11.947 90.315 11.947 L 165.685 11.947 Z" vector-effect="non-scaling-stroke"/>
 </g>
</svg>
